X: 45
T: Red Rocking Chair
C:Traditional
B: canberra pickers and fiddlers
B: old time tunes update
B: songs
B: traditional songs
B: tunes
M:C|
L:1/8
Q: 1/4=100
K:G
V:1 
GG|B-d-dB- A2GG|E3F E2EE|e3d edB2|d3B dBG2|
A-B-Bd B2BB|d-e-ed edB2|d3B d2A-B-|B2d2 BAG2|
E3F E2E-G-|G2GG G2 GG|B-d-dB- A2G2|E3F E2JG2-|G2GG G2:||  
"G"zzzzzzzz|"D"zzzzzzzz|"D"zzzzzzzz|"G"zzzzzzzz|"D"zzzzzzzz|
"D"zzzzzzzz|"D"zzzzzzzz|"G"zzzzzzzz|"G"zzzzzzzz|
"D"zzzzzzzz|"A"zzzzzzzz|"D"zzzzzzzz|"D"zzzzzzzz|
W: 
W: I ain't got no use
W: I ain't got no use
W: For your red rocking chair
W: Got no sugar baby now
W: I ain't got no sugar honey baby now
W: 
W: INSTR
W: 
W: I laid her in the shade,  I laid her in the shade
W: Gave her every dime I made
W: What more could a poor boy do?
W: What more could a poor boy do?
W: 
W: INSTR
W: 
W: Somebody came along, somebody came along
W: With his mouth full of corn
W: Ran and took my sugar baby gone
W: And I  got no sugar honey baby now
W: 
W: INSTR
W: 
W: Who will call me honey, who will call me honey
W: And who will sing this song
W: Who will rock the cradle when you're gone
W: Who I will rock the cradle when you're
W: 
W: I'll rock that cradle, I'll rock that cradle
W: I'll sing this song
W: And I will rock the cradle when you're gone
W: I will rock the cradle when you're
W: 
W: INSTR
W: 
W: I ain't got no use
W: I ain't got no use
W: For your red rocking chair
W: Got no sugar baby now
W: I ain't got no sugar honey baby now
W: 
W: Into Tune "Dull Chisel"
W: 
W: 
% abcbook-tune_id 64d8565ee72898bbcd92f2f3
% abcbook-tune_composer_id 
% abcbook-link-0 https://www.youtube.com/watch?v=pejVPL1HuUA
% abcbook-link-title-0 Wayward Jane - Red Rocking Chair
% abcbook-boost 0
% abcbook-difficulty 0
% abcbook-tags old time tunes,steve ryan,steve set
% abcbook-tablature 
% abcbook-transpose 
% abcbook-tuning GDAD
% abcbook-lastupdated 1739277579342
% abcbook-src-url 
% abcbook-soundfonts 
% abcbook-repeats 1


